docs/img/monitor.svg

<svg height="37.901" viewBox="0 0 47.472 37.901" width="47.472" xmlns="http://www.w3.org/2000/svg"><g fill="#fff" transform="translate(-296.475 -988.319)"><path d="m339.526 1020.436h-38.626a4.427 4.427 0 0 1 -4.422-4.422v-23.273a4.427 4.427 0 0 1 4.422-4.422h38.629a4.427 4.427 0 0 1 4.421 4.422v23.273a4.427 4.427 0 0 1 -4.424 4.422zm-38.626-30.828a3.136 3.136 0 0 0 -3.133 3.133v23.273a3.136 3.136 0 0 0 3.133 3.133h38.629a3.136 3.136 0 0 0 3.133-3.133v-23.273a3.136 3.136 0 0 0 -3.133-3.133z"/><path d="m322.4 1026.22h-4.379a.645.645 0 0 1 -.644-.644v-5.784a.645.645 0 0 1 .644-.645h4.379a.645.645 0 0 1 .644.645v5.784a.645.645 0 0 1 -.644.644zm-3.735-1.288h3.091v-4.5h-3.091z"/><path d="m328.02 1026.22h-15.62a.644.644 0 1 1 0-1.288h15.62a.644.644 0 1 1 0 1.288z"/></g></svg>

<svg xmlns="http://www.w3.org/2000/svg" width="47.472" height="37.901" viewBox="0 0 47.472 37.901">
  <g id="icon" transform="translate(-296.475 -988.319)">
    <g id="グループ_67" data-name="グループ 67">
      <path id="パス_58" data-name="パス 58" d="M339.526,1020.436H300.9a4.427,4.427,0,0,1-4.422-4.422V992.741a4.427,4.427,0,0,1,4.422-4.422h38.629a4.427,4.427,0,0,1,4.421,4.422v23.273A4.427,4.427,0,0,1,339.526,1020.436ZM300.9,989.608a3.136,3.136,0,0,0-3.133,3.133v23.273a3.136,3.136,0,0,0,3.133,3.133h38.629a3.136,3.136,0,0,0,3.133-3.133V992.741a3.136,3.136,0,0,0-3.133-3.133Z" fill="#fff"/>
    </g>
    <g id="グループ_68" data-name="グループ 68">
      <path id="パス_59" data-name="パス 59" d="M322.4,1026.22h-4.379a.645.645,0,0,1-.644-.644v-5.784a.645.645,0,0,1,.644-.645H322.4a.645.645,0,0,1,.644.645v5.784A.645.645,0,0,1,322.4,1026.22Zm-3.735-1.288h3.091v-4.5h-3.091Z" fill="#fff"/>
    </g>
    <g id="グループ_69" data-name="グループ 69">
      <path id="パス_60" data-name="パス 60" d="M328.02,1026.22H312.4a.644.644,0,1,1,0-1.288H328.02a.644.644,0,1,1,0,1.288Z" fill="#fff"/>
    </g>
  </g>
</svg>
